X: 1956
T: Viennese Nights
B: australian traditional tunes wiki
M:3/4
L:1/8
R: Waltz
Q: 1/4=100
K:G
V:1 
|:"G"d6|d4B2|G6-|G2D2G2|B6|B4G2|D6-|D2D2G2|
"D7"A6|A4B2|c6-|c2B2c2|e6|e4d2|1"G"B6-|B2G2B2:|2"G"G6-|G4z2|:
"G"d2Bd Ad|B6|d2Bd Ad|B6|D2c2B2|"D7"A6|D2B2A2|"G"G6:|
|:"G"d2Bd Ad|B2G4|d2Bd Ad|B6|D2c2B2|"D7"A6|D2B2A2|"G"G6:|
% abcbook-tune_id 6342d5be0e3a23de81e0350d


% abcbook-boost 0
% abcbook-tablature 
% abcbook-transpose 
% abcbook-lastupdated 1665324490260
% abcbook-soundfonts 
% abcbook-repeats 1
% NFF Book 2010

